public/images/icon_id_sector_empresa_7.svg

<svg width="42" height="42" viewBox="0 0 42 42" fill="none" xmlns="http://www.w3.org/2000/svg">
<path d="M36.6713 24.137C36.5006 23.9664 36.3169 23.8745 36.12 23.8745H36.015V19.9764C36.015 11.6945 29.2819 4.94824 20.9869 4.94824C12.6919 4.94824 5.90627 11.6814 5.90627 19.9632V23.8614H5.86689C5.68314 23.8614 5.49939 23.9532 5.31564 24.1239C5.19752 24.242 5.10564 24.5176 5.19752 24.7276L8.21627 36.4482C8.21627 36.8026 8.49189 37.052 8.88564 37.052H33.0881C33.495 37.052 33.7575 36.8157 33.7575 36.4876L36.7763 24.7276C36.8681 24.5045 36.7763 24.242 36.6581 24.1239L36.6713 24.137ZM35.3325 25.2789L32.6025 35.7132H9.46314L6.64127 25.2132L35.3325 25.2789ZM32.3663 23.8745H23.6381C23.4938 23.3757 23.4281 22.9426 23.4281 22.5095C23.4281 20.1207 24.7931 18.1126 26.4206 18.1126C26.8669 18.1126 27.2606 18.2307 27.6281 18.4801C27.72 18.572 27.8775 18.6639 28.1138 18.5982H28.2188L28.3106 18.5589H28.3238C28.3238 18.5589 28.3894 18.5195 28.4288 18.4932C28.7569 18.2307 29.1244 18.1126 29.5838 18.1126C31.2375 18.1126 32.5763 20.0814 32.5763 22.5095C32.5763 22.9032 32.5106 23.3495 32.3794 23.8745H32.3663ZM15.0806 13.1645L12.4688 13.9257L12.3506 13.5451L14.9625 12.797L15.0675 13.1645H15.0806ZM12.6 18.0995L12.9413 18.0339H12.9806C13.335 17.837 13.5188 17.4826 13.4269 17.102L12.8625 15.2514L15.4744 14.4901L16.0388 16.3407C16.0388 16.577 16.2094 16.682 16.3406 16.7476C16.5244 16.8395 16.695 16.8395 16.7738 16.8395L17.1675 16.6951C17.5875 16.577 18.0338 16.6164 18.4275 16.8132C18.7556 17.0101 19.0706 17.4039 19.1888 17.7714L19.6481 19.3595L11.9569 21.6432L11.5106 20.1339C11.2613 19.2807 11.7469 18.362 12.5869 18.0995H12.6ZM34.6106 23.8745H33.8363C33.915 23.4807 33.9938 23.0082 33.9938 22.5095C33.9938 19.3464 32.025 16.7739 29.5969 16.7739C29.3213 16.7739 29.0325 16.8132 28.7306 16.9182C28.8094 16.262 29.0456 15.842 29.1375 15.6582C29.1506 15.6189 29.1769 15.5926 29.1769 15.5664C29.4263 15.2907 29.4263 14.9101 29.1506 14.6476C28.8619 14.372 28.4025 14.3589 28.1269 14.6476C28.1269 14.6476 27.3525 15.4745 27.2869 16.9051C26.9981 16.8264 26.7356 16.787 26.4994 16.787C24.0713 16.787 22.1025 19.3595 22.1025 22.5226C22.1025 22.5882 22.1025 22.6539 22.1025 22.7195L20.5538 17.417C20.3306 16.6557 19.7925 15.9864 19.1231 15.6189C18.4144 15.3039 17.745 15.212 17.1281 15.3564L16.6425 13.6239C16.6425 13.6239 16.6425 13.5057 16.6031 13.4532L16.1044 11.6682L16.065 11.6289C16.065 11.6289 16.0256 11.5895 16.0125 11.5632C15.96 11.4845 15.8813 11.3926 15.7631 11.327C15.6713 11.2482 15.54 11.2482 15.4875 11.2482C15.4219 11.2482 15.3169 11.2482 15.225 11.3139L11.3138 12.4951C11.0119 12.6001 10.7494 12.9676 10.8544 13.3482L11.9306 16.9182C10.5263 17.4957 9.79127 19.0182 10.2244 20.5276L10.8544 22.6407C10.8544 22.6407 10.8544 22.6932 10.8544 22.7195L11.2088 23.8876H7.32377V19.9895C7.32377 12.4426 13.4663 6.31324 21 6.31324C28.5338 6.31324 34.6106 12.4557 34.6106 19.9895V23.8876V23.8745ZM20.0681 20.6851L21 23.8745H12.6394L12.3769 22.982L20.0681 20.6851Z" fill="url(#paint0_linear_133_1154)"/>
<path d="M12.6788 29.7149H29.1375C29.5444 29.7149 29.8069 29.3343 29.8069 28.9799C29.8069 28.5993 29.5182 28.3105 29.1375 28.3105H12.6788C12.2981 28.3105 12.0094 28.5993 12.0094 28.9799C12.0094 29.3343 12.285 29.7149 12.6788 29.7149Z" fill="url(#paint1_linear_133_1154)"/>
<path d="M29.1375 31.8936H12.6788C12.2981 31.8936 12.0094 32.1823 12.0094 32.5629C12.0094 32.9961 12.285 33.2979 12.6788 33.2979H29.1375C29.5313 33.2979 29.8069 32.9961 29.8069 32.5629C29.8069 32.1823 29.5182 31.8936 29.1375 31.8936Z" fill="url(#paint2_linear_133_1154)"/>
<defs>
<linearGradient id="paint0_linear_133_1154" x1="20.674" y1="4.94824" x2="35.3745" y2="13.8757" gradientUnits="userSpaceOnUse">
<stop stop-color="#192644"/>
<stop offset="1" stop-color="#1A4081"/>
</linearGradient>
<linearGradient id="paint1_linear_133_1154" x1="20.7322" y1="28.3105" x2="20.9149" y2="29.7366" gradientUnits="userSpaceOnUse">
<stop stop-color="#192644"/>
<stop offset="1" stop-color="#1A4081"/>
</linearGradient>
<linearGradient id="paint2_linear_133_1154" x1="20.7322" y1="31.8936" x2="20.9149" y2="33.3196" gradientUnits="userSpaceOnUse">
<stop stop-color="#192644"/>
<stop offset="1" stop-color="#1A4081"/>
</linearGradient>
</defs>
</svg>

<svg xmlns="http://www.w3.org/2000/svg" fill="none" viewBox="0 0 42 42"><path fill="url(#a)" d="M36.67 24.14a.78.78 0 0 0-.55-.27h-.1v-3.9a15.04 15.04 0 0 0-30.11 0v3.9h-.04c-.19 0-.37.08-.55.25-.12.12-.21.4-.12.6l3.02 11.73c0 .35.27.6.67.6h24.2c.4 0 .67-.23.67-.56l3.02-11.76a.6.6 0 0 0-.12-.6h.01Zm-1.34 1.14L32.6 35.7H9.46l-2.82-10.5 28.7.07Zm-2.96-1.4h-8.73a4.8 4.8 0 0 1-.21-1.37c0-2.39 1.36-4.4 3-4.4.44 0 .83.12 1.2.37.09.1.25.18.48.12h.1l.1-.04h.01l.1-.07c.34-.26.7-.38 1.16-.38 1.66 0 3 1.97 3 4.4 0 .4-.07.84-.2 1.36h-.01ZM15.08 13.15l-2.61.77-.12-.38 2.61-.75.1.36h.02ZM12.6 18.1l.34-.07h.04c.36-.2.54-.55.45-.93l-.57-1.85 2.61-.76.57 1.85c0 .24.17.34.3.4.18.1.36.1.43.1l.4-.14c.42-.12.86-.08 1.26.11.33.2.64.6.76.96l.46 1.59-7.7 2.28-.44-1.5a1.66 1.66 0 0 1 1.08-2.04h.01Zm22.01 5.77h-.77c.07-.39.15-.86.15-1.36 0-3.16-1.97-5.74-4.4-5.74-.27 0-.56.04-.86.15.08-.66.32-1.08.4-1.26.02-.04.05-.07.05-.1a.63.63 0 0 0-.03-.91.72.72 0 0 0-1.02 0s-.78.82-.84 2.26a3.02 3.02 0 0 0-.8-.12c-2.42 0-4.39 2.57-4.39 5.73v.2l-1.55-5.3a3.07 3.07 0 0 0-1.43-1.8c-.7-.32-1.38-.4-2-.26l-.48-1.74s0-.11-.04-.17l-.5-1.78-.04-.04-.05-.07a.72.72 0 0 0-.25-.23c-.09-.08-.22-.08-.27-.08-.07 0-.17 0-.27.06l-3.9 1.19c-.3.1-.57.47-.47.85l1.08 3.57a2.97 2.97 0 0 0-1.7 3.6l.62 2.12v.08l.36 1.17H7.32v-3.9a13.65 13.65 0 1 1 27.29 0v3.9-.02ZM20.07 20.7l.93 3.18h-8.36l-.26-.89 7.69-2.3Z"/><path fill="url(#b)" d="M12.68 29.71h16.46c.4 0 .67-.38.67-.73a.66.66 0 0 0-.67-.67H12.68a.66.66 0 0 0-.67.67c0 .35.28.73.67.73Z"/><path fill="url(#c)" d="M29.14 31.9H12.68a.66.66 0 0 0-.67.66c0 .44.28.74.67.74h16.46c.4 0 .67-.3.67-.74a.66.66 0 0 0-.67-.67Z"/><defs><linearGradient id="a" x1="20.67" x2="35.37" y1="4.95" y2="13.88" gradientUnits="userSpaceOnUse"><stop stop-color="#192644"/><stop offset="1" stop-color="#1A4081"/></linearGradient><linearGradient id="b" x1="20.73" x2="20.91" y1="28.31" y2="29.74" gradientUnits="userSpaceOnUse"><stop stop-color="#192644"/><stop offset="1" stop-color="#1A4081"/></linearGradient><linearGradient id="c" x1="20.73" x2="20.91" y1="31.89" y2="33.32" gradientUnits="userSpaceOnUse"><stop stop-color="#192644"/><stop offset="1" stop-color="#1A4081"/></linearGradient></defs></svg>
